X:1
T:Title
%%score { ( 1 4 ) | ( 2 3 ) }
L:1/8
Q:1/4=94
M:4/4
K:D
V:1 treble nm="Grand Piano"
V:4 treble 
V:2 bass 
V:3 bass 
V:1
 [FA][FA][FA][FA] [GB][FA][DF][FA] | [Fd]2 [Gd]2 [Fd]4 | B[Bd][Ac][GB] [FA][GB][FA][DF] | %3
w: Chas.~H.~Gabriel * * * * * * *|||
 [DF]2 [CE]2 [CE]4 | [EG][EG][EG][FA] [EG][DF][CE][EG] | [CGB][CGB][CGB][CGc] [CGB]2 [CE]2 | %6
w: |||
 [A,DF][DF][B,E^G][B,EG] [A,EA]Bc[Fd] | ccBB z2 G2 | [Fd]2 [Fd]2 dA[Ac][GB] | A4 z4 | %10
w: ||||
 [Ec]2 [GB]2 [FA]2 [EG]2 | F4 z4 | [Fd]2 [Fd]2 [Ad][DA][DAc][DGB] | A4 A2 z2 | %14
w: ||||
 F A2 [EG] [A,DF]2[K:bass] [G,CE]2 |[M:3/4] [F,D]6 |] %16
w: ||
V:2
 [D,D][D,D][D,D][D,D] [D,D][D,D][D,A,][D,D] | [D,A,]2 [D,B,]2 [D,A,]4 | %2
 [G,G][G,A,][K:bass][G,B,][G,C] [D,D][D,D][D,D][D,A,] | [A,,A,]2 [A,,A,]2 [A,,A,]4 | %4
 [A,,A,][A,,A,][A,,A,][A,,A,] [A,,A,][A,,A,][A,,A,][A,,A,] | A,,A,,A,,A,, z2 A,2 | %6
 D,D,D,D, C,[E,^G,E][A,E][D,A,] | [E,A,E][E,A,E][E,^G,D][E,G,D] C2 z2 | %8
 [D,A,]2 [D,A,]2 [F,A,D][F,D][G,D][G,D] | [D,D][D,D]F,[A,C] [D,D]2 [D,A,]2 | %10
 [A,,A,]2 [A,,A,]2 [A,,A,]2 [A,,A,]2 | [D,A,D][D,A,][D,A,][D,A,] D,2[K:treble] (3ABc | %12
 [D,A,]2 [D,A,]2 [F,A,]F,G,G, | D,D,F,[A,C] [D,D][D,A,][F,A,][K:treble][G,B,D] | A,4[K:bass] z4 | %15
[M:3/4] D,6 |] %16
V:3
 x8 | x8 | x2[K:bass] x6 | x8 | x8 | z4 A,,4 | x8 | z4 A,4 | x8 | x8 | x8 | x6[K:treble] x2 | x8 | %13
 x7[K:treble] x | D F2[K:bass] A, A,,2 A,,2 |[M:3/4] x6 |] %16
V:4
 x8 | x8 | x8 | x8 | x8 | x8 | x8 | z4 A4 | x8 | FFDE [FA]2 [Fd]2 | x8 | z DD[EG] [DFA]2 z2 | x8 | %13
 [DF][DF]DE FFDE | x6[K:bass] x2 |[M:3/4] x6 |] %16

